svgs/thin/garage-open.svg

<svg xmlns="http://www.w3.org/2000/svg" viewBox="0 0 640 512"><!--! Font Awesome Pro 6.6.0 by @fontawesome - https://fontawesome.com License - https://fontawesome.com/license (Commercial License) Copyright 2024 Fonticons, Inc. --><path d="M310.9 20.4c5.8-2.4 12.4-2.4 18.2 0L599.2 131.2c15 6.2 24.8 20.8 24.8 37L624 504c0 4.4 3.6 8 8 8s8-3.6 8-8l0-335.8c0-22.7-13.7-43.2-34.7-51.8L335.2 5.6c-9.7-4-20.6-4-30.4 0L34.7 116.4C13.7 125 0 145.5 0 168.2L0 504c0 4.4 3.6 8 8 8s8-3.6 8-8l0-335.8c0-16.2 9.8-30.8 24.8-37L310.9 20.4zM112 216c0-4.4 3.6-8 8-8l400 0c4.4 0 8 3.6 8 8l0 56-416 0 0-56zm0 72l416 0 0 216c0 4.4 3.6 8 8 8s8-3.6 8-8l0-288c0-13.3-10.7-24-24-24l-400 0c-13.3 0-24 10.7-24 24l0 288c0 4.4 3.6 8 8 8s8-3.6 8-8l0-216zm87.4 32l-5.9 18.2C174.1 344.4 160 362.6 160 384l0 120c0 4.4 3.6 8 8 8s8-3.6 8-8l0-40 288 0 0 40c0 4.4 3.6 8 8 8s8-3.6 8-8l0-120c0-21.4-14.1-39.6-33.5-45.8L440.6 320l-16.8 0 5.2 16-218 0 5.2-16-16.8 0zM432 352c17.7 0 32 14.3 32 32l0 64-288 0 0-64c0-17.7 14.3-32 32-32l224 0zM224 416a16 16 0 1 0 0-32 16 16 0 1 0 0 32zm208-16a16 16 0 1 0 -32 0 16 16 0 1 0 32 0z"/></svg>

<svg xmlns="http://www.w3.org/2000/svg" viewBox="0 0 640 512"><!--! Font Awesome Pro 6.4.2 by @fontawesome - https://fontawesome.com License - https://fontawesome.com/license (Commercial License) Copyright 2023 Fonticons, Inc. --><path d="M310.9 20.4c5.8-2.4 12.4-2.4 18.2 0L599.2 131.2c15 6.2 24.8 20.8 24.8 37V504c0 4.4 3.6 8 8 8s8-3.6 8-8V168.2c0-22.7-13.7-43.2-34.7-51.8L335.2 5.6c-9.7-4-20.6-4-30.4 0L34.7 116.4C13.7 125 0 145.5 0 168.2V504c0 4.4 3.6 8 8 8s8-3.6 8-8V168.2c0-16.2 9.8-30.8 24.8-37L310.9 20.4zM112 216c0-4.4 3.6-8 8-8H520c4.4 0 8 3.6 8 8v56H112V216zm0 72H528V504c0 4.4 3.6 8 8 8s8-3.6 8-8V216c0-13.3-10.7-24-24-24H120c-13.3 0-24 10.7-24 24V504c0 4.4 3.6 8 8 8s8-3.6 8-8V288zm87.4 32l-5.9 18.2C174.1 344.4 160 362.6 160 384V504c0 4.4 3.6 8 8 8s8-3.6 8-8V464H464v40c0 4.4 3.6 8 8 8s8-3.6 8-8V384c0-21.4-14.1-39.6-33.5-45.8L440.6 320H423.8l5.2 16H211l5.2-16H199.4zM432 352c17.7 0 32 14.3 32 32v64H176V384c0-17.7 14.3-32 32-32H432zM224 416a16 16 0 1 0 0-32 16 16 0 1 0 0 32zm208-16a16 16 0 1 0 -32 0 16 16 0 1 0 32 0z"/></svg>
